static/assets/images/twitter.svg

<svg xmlns="http://www.w3.org/2000/svg" width="24" height="19" viewBox="0 0 24 19">
    <path fill="#FFF" fill-rule="nonzero" d="M23.286 2.197a9.23 9.23 0 0 1-2.692.737c.969-.58 1.71-1.5 2.063-2.594a9.438 9.438 0 0 1-2.977 1.139A4.686 4.686 0 0 0 16.256 0a4.686 4.686 0 0 0-4.687 4.688c0 .365.04.722.12 1.067A13.316 13.316 0 0 1 2.023.854a4.69 4.69 0 0 0-.634 2.357 4.68 4.68 0 0 0 2.084 3.902 4.716 4.716 0 0 1-2.126-.584v.058a4.69 4.69 0 0 0 3.763 4.599 4.701 4.701 0 0 1-2.121.081 4.704 4.704 0 0 0 4.38 3.259 9.408 9.408 0 0 1-6.946 1.941 13.266 13.266 0 0 0 7.191 2.107c8.625 0 13.345-7.147 13.345-13.344 0-.206-.005-.406-.013-.607a9.414 9.414 0 0 0 2.338-2.424l.002-.002z"/>
</svg>

<?xml version="1.0" encoding="UTF-8" standalone="no"?>
<!DOCTYPE svg PUBLIC "-//W3C//DTD SVG 1.1//EN" "http://www.w3.org/Graphics/SVG/1.1/DTD/svg11.dtd">
<svg width="100%" height="100%" viewBox="0 0 24 19" version="1.1" xmlns="http://www.w3.org/2000/svg" xmlns:xlink="http://www.w3.org/1999/xlink" xml:space="preserve" xmlns:serif="http://www.serif.com/" style="fill-rule:evenodd;clip-rule:evenodd;stroke-linejoin:round;stroke-miterlimit:1.41421;">
    <path d="M23.286,2.197C22.431,2.578 21.523,2.826 20.594,2.934C21.563,2.354 22.304,1.434 22.657,0.34C21.736,0.886 20.73,1.271 19.68,1.479C18.793,0.534 17.552,-0.002 16.256,0C16.256,0 16.255,0 16.255,0C13.684,0 11.569,2.115 11.569,4.686C11.569,4.687 11.569,4.687 11.569,4.688C11.569,5.053 11.609,5.41 11.689,5.755C7.92,5.566 4.403,3.783 2.023,0.854C1.607,1.57 1.389,2.383 1.389,3.211C1.386,4.777 2.17,6.244 3.473,7.113C2.728,7.089 2,6.889 1.347,6.529L1.347,6.587C1.346,8.812 2.929,10.746 5.11,11.186C4.418,11.374 3.693,11.402 2.989,11.267C3.603,13.171 5.368,14.485 7.369,14.526C5.404,16.069 2.903,16.768 0.423,16.467C2.567,17.846 5.065,18.577 7.614,18.574C16.239,18.574 20.959,11.427 20.959,5.23C20.959,5.024 20.954,4.824 20.946,4.623C21.865,3.962 22.657,3.141 23.284,2.199L23.286,2.197Z" style="fill:white;fill-rule:nonzero;"/>
</svg>
